X:1
T:Mac's Fancy
R:jig
M:6/8
L:1/8
K:Amix
|:ecA fed|ecA Bcd|ecA gfe|dBG Bcd|
|ecA fed|ecA Bcd|~d2g gfe|dBG Bcd:|
|:eaa aea|aea aea|eaa aef|gfe dBG|
|eaa aea|aea aef|~g2g gfe|dBG Bcd:|